X: 24
T: No_126_Little_Eagle's_Song.krn
N: Derived from No_126_Little_Eagle's_Song.krn
%%abc-version 2.0
%%abcx-abcm2ps-target-version 5.9.1 (29 Sep 2008)
%%abc-creator hum2abc beta
%%abcx-conversion-date 2019/03/15 08:29:13
%%humdrum-veritas 3349543194
%%humdrum-veritas-data 3602732125
%%linebreak <none>
%%barnumbers 0
L: 1/8
M: 3/4
%%staves {1 2}
V: 1 clef=bass
V: 2 clef=bass
K: Ab
[V:1] [K:clef=bass][M:3/4]FFF2(3ECC | 
[V:2] [K:clef=bass][M:3/4]z6 | 
[V:1] EC C3/C/ (3:2:2B,A,B,/(3:2:1C// ||  
[V:2] (3!accent!G,, z G,, (3!accent!G,, z G,, (3!accent!G,, z G,, ||  
[V:1] [M:2/4]B,3/A,/F,2 ||  
[V:2] [M:2/4]z4 ||  
[V:1] [M:3/4]A,B, B,3/A,/ F,3//G,//F,/E,/ | 
[V:2] [M:3/4]z6 | 
[V:1] (3:2:1F,/F,-(3:2:1F,-F,4 | 
[V:2] z6 | 
[V:1] (3DDD C/(D/B,/)G,/ B,3/C/ ||  
[V:2] z6 ||  
[V:1] [M:2/4]B,3/A,/F,2 ||  
[V:2] [M:2/4]z4 ||  
[V:1] [M:3/4]A,B, {/C} B,3/A,/ F,3//G,//F,/E,/ | 
[V:2] [M:3/4]z6 | 
[V:1] F,//F,3//-F,3//F,//F,4 |]  
[V:2] z6 |]  



